X: 34717
T: Road To Glountane, The
R: barndance
M: 4/4
K: Amajor
|:AF|E2 EF A2 AB|c>ee>c B>A F2|(3fgf e>c A>Bc>A|e>cB>A F>AA>F|
E3 F A3 B|c2 e>c B>A A2|(3fgf e>c A>Bc>A|e>cB>c A2:|
|:(3agf|e2 e>f a2 a>f|e>cB>A F>AA>B|c>BB>A c>BB>A|c>eB>A F2 a>f|
1 e>ce>f a3 f|e>cB>A F>AA>B|c>BB>A c>BB>A|e>c (3BcB A2:|
2 E3 F A3 B|c2 e>c B>c A2|f2 e>c A>Bc>A|e>cB>c A2||

